!!!COM: Morley, Thomas
!!!OTL: Domine, Dominus Noster
!!!YOR: from 'Collected Motets' edited by H.K. Andrews & Thurston Dart, pp.22-28
!!!YOO: Stainer & Bell (London)
!!!YOY: 1959
**kern	**kern	**kern	**kern	**kern
*ICvox	*ICvox	*ICvox	*ICvox	*ICvox
! Bassus	! Tenor	! Altus	! Altus	! Cantus
*M4/4	*M4/4	*M4/4	*M4/4	*M4/4
=1	=1	=1	=1	=1
1r	2.A	1r	1r	1r
.	4A	.	.	.
=2	=2	=2	=2	=2
1r	2G#	1r	1r	1r
.	4A	.	.	.
.	4B	.	.	.
=3	=3	=3	=3	=3
1r	4.c	1r	1e	2r
.	{8B	.	.	.
.	4A	.	.	[2a
.	4G	.	.	.
=4	=4	=4	=4	=4
1r	2F#}	1r	2d#	4a]
.	.	.	.	4a
.	2E	.	2e	2g#
=5	=5	=5	=5	=5
1r	{4c	1r	2r	4a
.	4B	.	.	4b
.	4.A}	.	4e	[2cc
.	.	.	4f#	.
.	8A	.	.	.
=6	=6	=6	=6	=6
2r	4E	1r	2.g	4cc]
.	{4G	.	.	{4.b
[2E	2c	.	.	.
.	.	.	.	8a
.	.	.	[{4e	[4a
=7	=7	=7	=7	=7
4E]	2B}	2.e	8e]	4a]
.	.	.	8d	.
4E	.	.	4B	4g#}
2AA	2A	.	4c	2a
.	.	4e	4A	.
=8	=8	=8	=8	=8
4r	1r	2A	4.c	2r
2Fn	.	.	.	.
.	.	.	8B	.
.	.	2r	4A	4dd
4E	.	.	4G#}	4ee
=9	=9	=9	=9	=9
4D	1r	4d	4A	4ffn
{4C	.	4e	{2c	{4.ee
[2D	.	2fn	.	.
.	.	.	.	8dd
.	.	.	[4B	[4dd
=10	=10	=10	=10	=10
4D]	2r	4r	8B]	4dd]
.	.	.	8A	.
4AA	.	{4.e	2A}	2cc
2E	[2e	.	.	.
.	.	8d	.	.
.	.	4B	4G#	[4b
=11	=11	=11	=11	=11
4C	4e]	4c	4A	8b]
.	.	.	.	8a
4AA	4e	4A}	{4c	2a
2E}	2e	2B	4B	.
.	.	.	4E}	4g#}
=12	=12	=12	=12	=12
2AA	2r	{4.c	2E	4.a
.	.	8B	.	{8gn
{4D	4d	4.A	4r	4fn
4C#	4e	.	[4A	[4e
.	.	8G	.	.
=13	=13	=13	=13	=13
2D}	2fn	4Fn	4A]	8e]
.	.	.	.	16d
.	.	.	.	16c#
.	.	4D	4B	4d}
2AA	4r	2A	2c	2e
.	[{4e	.	.	.
=14	=14	=14	=14	=14
2D	8e]	4Fn	{4d	2r
.	8d	.	.	.
.	2d	4D}	2fn	.
2AA	.	2A	.	[2a
.	4c#	.	[4e	.
=15	=15	=15	=15	=15
1r	4d	{2.fn	8e]	4a]
.	.	.	8d	.
.	4D}	.	2d	4a
.	2A	.	.	2a
.	.	[4e	8c	.
.	.	.	8d	.
=16	=16	=16	=16	=16
1r	{4c	4e}]	8e	4a
.	.	.	8f	.
.	4B	4d	2g	4b
.	2A	4e	.	2cc
.	.	{4A	8f	.
.	.	.	8e	.
=17	=17	=17	=17	=17
2r	4D	4.d	4f#	{4a
.	2G	.	4g}	2b
.	.	8c	.	.
[2D	.	8B}	2d	.
.	.	{8c	.	.
.	4F#	4d}	.	[4a
=18	=18	=18	=18	=18
2D]	4A	8c	4r	8a]
.	.	{8B	.	8g
.	4B	8A	2d	2g
.	.	8G	.	.
2D	2A}	4d	.	.
.	.	4A	4d	4f#}
=19	=19	=19	=19	=19
4GG	2G	2B	2d	2g
4GG	.	.	.	.
4D	2r	4A}	{4fn	{4a
4E	.	4G	[4e	[4cc
=20	=20	=20	=20	=20
2Fn	1r	4A	4e}]	4cc]
.	.	4B	4d	8b
.	.	.	.	8a}
2E	.	4.c	4e	2g#
.	.	.	[4e	.
.	.	{8B	.	.
=21	=21	=21	=21	=21
1r	1r	4A	8e]	4a
.	.	.	8f#	.
.	.	4G	4g	4b
.	.	4.A	{4f#	2cc
.	.	.	[4e	.
.	.	8E	.	.
=22	=22	=22	=22	=22
1r	2r	4G	8e]	{4b
.	.	.	8d	.
.	.	4A}	4c	2a
.	4r	4E	2B}	.
.	4E	[{4e	.	4g#}
=23	=23	=23	=23	=23
1r	2Fn	8e]	4A	2a
.	.	8d	.	.
.	.	4fn	4A	.
.	2G	4e	4B	2r
.	.	4g	4B	.
=24	=24	=24	=24	=24
1r	4.A	8fn	2c	2r
.	.	8e	.	.
.	.	2a	.	.
.	8A	.	.	.
.	4E	.	2B	2b
.	4E	4g}	.	.
=25	=25	=25	=25	=25
1r	4.A	4fn	4A	1cc
.	.	4e	8r	.
.	8G	.	8e	.
.	4Fn	{8d	4.a	.
.	.	8c	.	.
.	4E	[4c	.	.
.	.	.	8g	.
=26	=26	=26	=26	=26
1r	4.D	4c]	4.fn	2dd
.	.	4B}	.	.
.	8D	.	8f	.
.	2C	4c	4e	4.ee
.	.	4c	4e	.
.	.	.	.	8ee
=27	=27	=27	=27	=27
1r	1r	4d	4fn	4a
.	.	4d	4f	4dd
.	.	4.e	2g	{4cc
.	.	.	.	[4b
.	.	8e	.	.
=28	=28	=28	=28	=28
4r	2r	2A	4fn	8b}]
.	.	.	.	{8a
4C	.	.	{4.e	4cc}
4D	4r	2r	.	{4b
.	.	.	8d	.
4D	4Fn	.	4fn	4dd
=29	=29	=29	=29	=29
4.E	4G	4r	1e}	4cc
.	4G	4B	.	4.b}
8E	.	.	.	.
4AA	4.A	4c	.	.
.	.	.	.	{8a
[4A	.	4A	.	4cc}
.	8A	.	.	.
=30	=30	=30	=30	=30
4A]	4E	4.e	1r	2b
4G	4E	.	.	.
.	.	8e	.	.
4Fn	2c	4A	.	2r
4E	.	4c	.	.
=31	=31	=31	=31	=31
2D	4d	4B	1r	4r
.	{2fn	4.A	.	4a
2A	.	.	.	2cc
.	.	8B	.	.
.	[4e	4c	.	.
=32	=32	=32	=32	=32
4Fn	8e]	2A	4r	4dd
.	8d	.	.	.
4D	4d	.	4A	{2ffn
4.A	4e}	2r	2c	.
.	[4A	.	.	[4ee
8A	.	.	.	.
=33	=33	=33	=33	=33
2D	4A]	1r	4d	8ee]
.	.	.	.	8dd
.	{4.A	.	{2fn	2dd
2AA	.	.	.	.
.	8G}	.	.	.
.	4E	.	[4e	4cc#}
=34	=34	=34	=34	=34
2D	2Fn	1r	8e]	2dd
.	.	.	8d	.
.	.	.	2d	.
2AA	2E	.	.	2r
.	.	.	4c#}	.
=35	=35	=35	=35	=35
4.D	{2Fn	4r	2d	1r
.	.	4A	.	.
8D	.	.	.	.
2AA	4E	2c	{2e	.
.	4A	.	.	.
=36	=36	=36	=36	=36
1r	4Fn	4d	4A	4r
.	4D	{2fn	4d}	4a
.	2A}	.	4c	2cc
.	.	[4e	{4e	.
=37	=37	=37	=37	=37
4r	2D	8e]	4fn}	4dd
.	.	8d	.	.
4D	.	2d	4.a	{2ffn
4AA	2r	.	.	.
.	.	.	{8b	.
4AA	.	4c#	4ccn}	[4ee
=38	=38	=38	=38	=38
{2D	1r	4d	{4fn	8ee]
.	.	.	.	8dd
.	.	4fn	4.a	2dd
2AA}	.	2e}	.	.
.	.	.	8g	.
.	.	.	4e}	4cc#}
=39	=39	=39	=39	=39
2D	4r	2d	2.f#	2dd
.	4A	.	.	.
{2AA	2c	2r	.	4r
.	.	.	[{4e	[4a
=40	=40	=40	=40	=40
2D	4A	2r	8e]	8a]
.	.	.	8d	8g
.	4.B	.	2d	4fn
[2E	.	4r	.	2e
.	8A	.	.	.
.	[{4A	4e	4c	.
=41	=41	=41	=41	=41
2E}]	4A]	2gn	2B}	4r
.	4G#	.	.	4b
2AA	4.A	4fn	2A	2cc
.	.	[4e	.	.
.	8Gn	.	.	.
=42	=42	=42	=42	=42
1r	4Fn	8e]	1r	4a
.	.	8d	.	.
.	4D	4fn	.	2dd
.	2A}	4e	.	.
.	.	[{4a	.	4cc
=43	=43	=43	=43	=43
4r	4E	4a]	1r	2b
4E	{4.e	4g	.	.
4Fn	.	2fn}	.	[2a
.	8d	.	.	.
4D	[4d	.	.	.
=44	=44	=44	=44	=44
2A	4d]	4e	4r	2a]
.	4c#}	{4.A	4e	.
2D	4d	.	2fn	2r
.	.	8G	.	.
.	4A	8Fn	.	.
.	.	8D}	.	.
=45	=45	=45	=45	=45
{2AA	2c	2E	4e	2r
.	.	.	2a	.
2E}	2B	2r	.	2b
.	.	.	4g	.
=46	=46	=46	=46	=46
2AA	4.A	1r	{4fn	4cc
.	.	.	4.e	4cc
.	{8G	.	.	.
2r	8Fn}	.	.	4a
.	{8E	.	8d	.
.	4D	.	4fn}	[4dd
=47	=47	=47	=47	=47
1r	2A}	4r	4e	4dd]
.	.	4e	{4A	4cc#
.	4D	2fn	[2d	2dd
.	{4d	.	.	.
=48	=48	=48	=48	=48
4r	4A	4e	4d]	1r
4AA	4.e	2a	4c	.
2E	.	.	2B	.
.	8d	.	.	.
.	4B	4g#	.	.
=49	=49	=49	=49	=49
4AA	2c}	{4a	2A}	2r
2A	.	4.e	.	.
.	2B	.	2E	2ee
.	.	8f#	.	.
4G	.	4g	.	.
=50	=50	=50	=50	=50
{4Fn	4c	2a	1r	2ffn
4D	4.d	.	.	.
4.G	.	2b}	.	4dd
.	8c	.	.	.
.	8B	.	.	[4gg
8Fn	8A	.	.	.
=51	=51	=51	=51	=51
8E	{4.G	4B	2r	8gg]
8D	.	.	.	{8ffn
4C	.	{4.g	.	4ee}
.	8A	.	.	.
4BB	4B	.	4r	{4dd
.	.	8fn	.	.
4C	4G}	4e	4c	[4cc
=52	=52	=52	=52	=52
2GG}	2G	2d}	2.g	4cc]
.	.	.	.	4b}
4C	2G	4.e	.	2cc
4C	.	.	4g	.
.	.	{8d	.	.
=53	=53	=53	=53	=53
4.c	2C	8e	{4g	4r
.	.	8fn	.	.
.	.	8e	4c}	4ee
8B	.	8d	.	.
8A	2r	8c	4e	4ee
8G	.	8B	.	.
{8Fn	.	8A	[{4fn	4dd
8E	.	8G}	.	.
=54	=54	=54	=54	=54
8D	1r	4A	8f]	2ffn
8C	.	.	8e	.
4D}	.	4a	8d	.
.	.	.	8c	.
4.E	.	4a	8B	[2ee
.	.	.	8A	.
.	.	4g	4B}	.
{8D	.	.	.	.
=55	=55	=55	=55	=55
8C	4E	2cc	4A	2ee]
8BB	.	.	.	.
4AA	2A	.	{2e	.
2E	.	4b	.	4r
.	4G	[{4b	4B	4e
=56	=56	=56	=56	=56
4.C	4c	8b]	1e}	8e
.	.	8a	.	8e
.	4c	2a	.	4.ee
8D	.	.	.	.
2E}	2B	.	.	.
.	.	.	.	8dd
.	.	4g#}	.	4b
=57	=57	=57	=57	=57
1AA;	1A;	1a;	1e;	1cc#;
==	==	==	==	==
*-	*-	*-	*-	*-
!!!ENC: Mark Laxton
!!!EDD: Mark Laxton
!!!YEC: Mark Laxton, 1987
!!!EMD: Reference records added by D. Huron, 2001
!!!EEV: 1.1
